!!!OTL: Was mein Gott will, das gscheh allzeit.
!!!ARE: Europa, Mitteleuropa, Deutschland
!!!SCT: A0640A
!!!TXL: @@DE
!!!YEM: Copyright 1995, estate of Helmut Schaffrath.
**kern	**text
*M4/2	*
*met(c|)	*
*clefC1	*
*k[b-]	*
*d:aeo	*
!LO:TX:a:t=aeol. tr.	!
{1d	Was
=1	=1
1f	mein
1g	Gott
=2	=2
2f	will,
2b-	das
2b-	gſcheh
2a	all-
=3	=3
2b-}	-ʒeit,
{2b-	ſein
2a	Will
2g	der
=4	=4
1cc	iſt
2b-	der
2.a	be-
=5	=5
.	.
4gy/	.
1g	.
2f#	.
=6	=6
1g}	-ſte;}
{1d	Ʒu
=7	=7
1f	hel-
1g	-fen
=8	=8
2f	den
2b-	Er
2b-	iſt
2a	be-
=9	=9
2b-}	-reit,
{2b-	die
2a	an
2g	ihn
=10	=10
1cc	glauben
2b-	.
2.a	fe-
=11	=11
.	.
4gy/	.
1g	.
2f#	.
=12	=12
0g	-ſte.}
!LO:TX:a:t=P:no 1r in the source:problem	!
=13	=13
2r}	.
{2g	Er
2g	hilfft
2g	aus
=14	=14
4a	Noth
4g	.
4f	.
4e	.
2f	.
1g	der
=15-	=15-
.	.
1f	from-
2e	-me
=16	=16
1f	Gott,
2r}	.
{2f	vnd
=17	=17
*lig	*
2.f	tröſt
4g/	.
*Xlig	*
2a	die
1b-	Welt
=18-	=18-
.	.
2a	ohn
1g	maſ-
=19	=19
1f	-ſen,
2r}	.
{2d	wer
=20	=20
1f	Gott
1g	vertrawt,
=21	=21
2f	.
2b-	feſt
2b-	auff
2a	jhn
=22	=22
2b-}	bawt,
{2b-	den
2a	wil
2g	er
=23	=23
1cc	nicht
2b-	ver-
2.a	-laſ-
=24	=24
.	.
4g	.
1g	.
2f#	.
=25	=25
1g/ll}	-ſen.
==	==
!!!GTL: Geistliche Volkslieder
!!!AGN: Romanze, Ballade, Lied, religioeses Lied
!! Fliegendes Blatt 1530
!!!ONB: ESAC (Essen Associative Code) Database: ALTDEU
!!!AMT: simple quadruple
!!!AIN: vox
!!!EED: Helmut Schaffrath
!!!EEV: 1.0
!!!RDF**kern: l = terminal long
!!!AMD: Aeolian
!!!URL-scan: https://rosdok.uni-rostock.de/mcrviewer/recordIdentifier/rosdok_ppn738218359/iview2/phys_0822.iview2?x=105.19263581881364&y=271.6349435742013&scale=0.7106933083589261&rotation=0&layout=singlePageLayout&logicalDiv=log_0007
!!!ENC: Anna Maria Matuszewska
!!!EEV: 2024/25/03
*-	*-
